X:1
T:60 Lessons for 2 Guitars, Op.168 - Joseph Küffner (1776 - 1856)
T:Leçon No.45
T:60 Lessons for 2 Guitars, Op.168 "à l'usage des commençants"
T:Joseph Küffner (1776 - 1856)
%%score { ( 1 2 ) ( 3 4 ) }
L:1/8
Q:1/4=100
M:2/2
K:A
V:1 treble-8 nm="Classical Guitar"
V:2 treble-8 
V:3 treble-8 nm="Guitare classique"
V:4 treble-8 
V:1
"_""^Marche""^Moderato" [Ac]2 [Ac]>[Ac] [Ac](d/c/) .B.c | %1
 .[GBe].[Bd] !>![GB]2 .[GBe].[Bd] !>![GB]2 | [Ac]2 [Ac]>[Ac] [Ac](d/c/) .B.A | %3
 [EG][FA] !>![GB]2 [EG][FA] !>![GB]2 | [Ac]2 [Ac]>[Ac] [Ac](d/c/) .B.c | %5
 [GBe][Bd] !>![GB]2 .[GBe].[Bd] !>![GB]2 | .A/.B/.c/.d/ .e/.f/.g/.a/ .g/.f/.e/.d/ .c/.B/.A/.G/ | %7
 !>![E,GB]4 [A,A]2 z2 ::"_" [GB]2 [GB]>[GB] [GB](c/B/) .A.B | %9
 .[Ac].[Bd] !>![ce]2 .[Ac].[Bd] !>![ce]2 | [GB]2 [GB]>[GB] [GB](c/B/) .A.B | %11
 .[Ac].[Bd] !>![ce]2 .[Ac].[Bd] !>![ce]2 |"_" [Ac]2 [Ac]>[Ac] [Ac](d/c/) .B.c | %13
 [GBe][Bd] !>![GB]2 .[GBe].[Bd] !>![GB]2 | .A/.B/.c/.d/ .e/.f/.g/.a/ .g/.f/.e/.d/ .c/.B/.A/.G/ | %15
 !>![E,GB]4 [A,A]2 z2 :| %16
V:2
 A,2 z2 A, z z2 | E,2 z2 E,2 z2 | A,2 z2 A, z z2 | E,2 z2 E,2 z2 | A,2 z2 A, z z2 | E,2 z2 E,2 z2 | %6
 A,2 z2 z4 | x8 :: E,2 z2 E, z z2 | A,2 z2 A,2 z2 | E,2 z2 E, z z2 | A,2 z2 A,2 z2 | %12
 A,2 z2 A, z z2 | E,2 z2 E,2 z2 | A,2 z2 z4 | x8 :| %16
V:3
"_" A,AA,A A(B/A/) .G.A | z EeE z EeE | A,AA,A A(B/A/) .G.F | z EeE z EeE | A,AA,A A(B/A/) .G.A | %5
 z EeE z EeE | !arpeggio![A,Ace]2 z2 !arpeggio![E,Gde]2 z2 | z/ E/G/E/ d/E/G/E/ [A,EAc]2 z2 :: %8
"_" E,EE,E z (A/G/) .F.G | z AaA z AaA | E,EE,E z (A/G/) .F.G | z AaA z AaA | %12
"_" A,AA,A A(B/A/) .G.A | z EeE z EeE | !arpeggio![A,Ace]2 z2 !arpeggio![E,Gde]2 z2 | %15
 z/ E/G/E/ d/E/G/E/ [A,EAc]2 z2 :| %16
V:4
 x4 A,4 | E,4 E,4 | x4 A,4 | E,4 E,4 | x4 A,4 | E,4 E,4 | x8 | E,4 x4 :: x4 E,4 | A,4 A,4 | %10
 x4 E,4 | A,4 A,4 | x4 A,4 | E,4 E,4 | x8 | E,4 x4 :| %16

